!!!OTL: Dawushan gaoyuogao
!!!ARE: Asia, China,ÿHubei Dawu
!! I, 425
!!!SCT: C2167
!!!YEM: Copyright 1995, estate of Helmut Schaffrath.
**kern
*ICvox
*Ivox
!! Mixed meters:  2/4; 3/4
*M3/4
*k[f#]
*G:
{16dd
16ee
16dd
16b
4a
=1
16dd
16ee
16dd
16b
4a
=2
8a
8dd
16b
16a
8g
=3
8.a
16b
4a}
=4
{8.g
16a
8dd
8b
=5
8.g
16a
8dd
8b
=6
16g
16a
16b
16g
4a
=7
8a
8g
8g
4e
8g
=8
8.a
16e
4d}
==
!!!AGN: Xiaodiao, Dengdiao, Qiacaitaidiao huatiao
!!!ONB: ESAC (Essen Associative Code) Database: SENGANSU
!!!AMT: irregular
!!!AIN: vox
!!!EED: Helmut Schaffrath
!!!EEV: 1.0
*-
